smiling-axolotl/src/assets/partners/AstralLabs.svg

<svg width="278" height="119" viewBox="0 0 278 119" fill="none" xmlns="http://www.w3.org/2000/svg">
<g clip-path="url(#clip0_701_152)">
<path d="M168.69 74.23C175.89 76.96 178.99 88.3999 172.93 93.1699C172.12 93.8699 172.67 94.35 173.41 94.65C182.9 98.05 182.51 113 173.41 116.68C164.91 120.22 152.98 118.57 143.83 117.65C141.34 117.65 141.02 114.94 140.89 112.97C140.31 101.13 140.2 88.87 141.12 77.12C141.18 76.35 141.28 75.2499 141.65 74.7499C144.14 72.5599 162.98 72.33 168.56 74.19L168.69 74.2399V74.23ZM155.58 82.8199C155.49 83.9799 155.58 87.7199 155.55 88.5699C155.58 88.9299 155.89 88.9699 156.25 88.9999C159.77 89.3199 162.64 86.62 160.45 83.62C159.99 83.03 159.32 82.5699 158.61 82.4499C157.99 82.4299 156.14 82.6099 155.63 82.7899L155.59 82.8299L155.58 82.8199ZM161.24 100.04C160.06 99.7099 157.25 100.13 156.2 100.01C155.64 99.99 156 100.88 155.9 101.99C155.96 103.27 155.77 105.16 155.98 106.17C156.04 106.22 156.13 106.24 156.27 106.24C158.32 106.21 162.74 106.92 163.24 103.84C163.42 102.69 163.24 101.43 162.26 100.68C161.86 100.43 161.47 100.23 161.32 100.09L161.25 100.03L161.24 100.04Z" fill="currentColor"/>
<path d="M234.92 2.11002C235.99 2.76002 237.19 3.49002 238.45 4.10002C249.89 9.75002 255.82 0.810018 264.69 2.82002C266.07 3.13002 267.26 4.10002 267.79 5.42002C269.82 10.19 266.32 16.11 266.82 21.3C267.34 27.53 273.38 31.25 276.5 36.1C280.23 43.42 272.23 45.22 266.56 45.56C261.36 45.56 257.18 47.25 254.97 52.09C254.1 53.99 253.21 53 251.84 52.49C249.93 51.72 247.71 52.02 245.6 51.9C244.47 51.86 243.41 51.39 243.16 50.19C241.47 41.19 245.5 23.3 238.09 18.8C235.55 17.12 232.2 17.41 229.25 17.6C227.88 17.67 226.41 17.79 225.86 17.06C225.62 16.78 225.5 16.39 225.43 15.92C224.46 5.86002 223.07 -4.48998 234.77 2.02002L234.91 2.10002L234.92 2.11002Z" fill="currentColor"/>
<path d="M166.16 23.39C175.47 27.41 178.03 42.61 168.89 48.25C166.98 49.97 169.13 51.89 170.14 53.8C171.16 55.46 171.98 56.58 173.12 58.26C176.88 64.13 179.83 67.5 169.85 67.23C168.12 67.24 166.04 67.24 164.46 67.21C163.21 67.21 162.28 66.39 161.76 65.29C159.59 61.06 157.9 56.29 155.41 52.43C155.04 51.86 154.52 51.46 154.42 52.41C154.27 53.96 154.34 56.33 154.42 58.11C155.32 68.34 154.97 67.56 146.31 67.23C142.06 67.07 140.27 66.77 140.27 62.06C139.97 51.1 139.41 40.12 139.7 29.15C139.75 27.55 139.68 25.34 140.59 24.02C142.4 21.8 145.84 22.7 148.37 22.36C154.05 21.98 161.04 21.39 165.99 23.32L166.16 23.39ZM157.91 33.26C157.08 33.09 155.62 33.28 154.64 33.28C154.55 33.3 154.5 33.34 154.48 33.41C154.45 34.18 154.48 34.97 154.48 36.2C154.48 38.26 154.48 40.75 154.48 41.3C154.54 41.45 154.61 41.46 154.82 41.47C156.06 41.44 158.08 41.69 159.03 40.79C161.21 38.92 160.82 34.45 158.05 33.3L157.9 33.25L157.91 33.26Z" fill="currentColor"/>
<path d="M124.32 73.79C129.58 86.65 134.25 101.09 137.73 114.86C138.15 117.87 134.89 117.9 132.75 117.97C130.5 118.15 127.62 118.46 125.47 118.18C123.1 117.89 122.9 114.63 122.2 112.86C121.96 112.13 121.7 111.68 120.94 111.66C119.04 111.62 112.46 111.62 110.34 111.62C107.68 111.74 108.25 115.82 106.64 117.35C105.64 118.52 103.9 118.24 101.87 118.3C98.4299 118.22 94.8399 118.28 92.9199 116.92C92.1799 116.24 92.6099 114.83 92.9699 113.91C97.9699 100.86 101.06 86.29 108.07 74.06C108.58 73.24 109.1 72.95 109.93 72.95C112.29 72.95 118.26 72.82 121.61 72.98C123.08 73.08 123.84 73.06 124.27 73.68L124.34 73.78L124.32 73.79ZM112.62 101.49C113.66 101.56 116.83 101.51 117.51 101.51C117.94 101.48 118.31 101.09 118.31 100.71C118.16 97.64 116.38 94.57 116.17 91.53C116.17 91.14 115.84 90.11 115.53 90.9C115.28 92.4 114.49 94.27 113.99 95.72C113.59 97.39 112.88 99.9 112.59 101.46L112.62 101.49Z" fill="currentColor"/>
<path d="M208.36 22.55C213.07 32.14 215.27 43.9799 219.05 53.9599C219.87 55.5099 220.01 56.7299 220.17 58.3499C220.75 61.0199 223.89 66.23 219.06 66.51C216.24 66.49 213.46 67.1199 210.63 66.8899C209.04 66.6699 208.46 65.1 207.96 63.68C207.45 62.53 207.41 61.13 206.32 60.61C204.21 60.35 198.27 60.54 195.78 60.47C195.07 60.47 194.59 60.58 194.32 61.38C193.63 63 193.52 65.5899 191.85 66.6399C189.88 67.4999 186.8 66.52 184.52 66.61C182.06 66.78 179.2 66.37 179.66 63.15C183.32 50.44 186.73 36.28 191.6 23.66C191.96 22.84 192.3 22.29 192.97 21.98C195.54 20.77 203.9 21.12 207.09 21.84C207.55 21.95 207.96 22.13 208.28 22.47L208.37 22.57L208.36 22.55ZM198.02 50.5C199.47 50.65 201.63 50.7999 203.05 50.3699C203.24 50.2199 203.35 50.0499 203.3 49.7799C202.92 48.3299 202.46 46.6 202.07 44.9C201.8 44.25 200.92 38.81 200.18 39.97C199.39 43.12 198.34 46.3699 197.64 49.5499C197.6 49.8599 197.58 50.33 197.9 50.45L198.03 50.5H198.02Z" fill="currentColor"/>
<path d="M203.55 73.36C208.92 75.17 215.29 74.2 213.61 82C213.4 84.19 213.1 86.54 210.54 86.02C206.78 85.32 202.73 82.73 198.66 83.61C197.31 83.89 196.31 85.37 197.04 86.65C197.62 87.76 199.2 88.18 200.59 88.57C210.08 91.3 218.95 93.91 217.98 105.7C215.96 118.78 199.42 121.65 188.64 116.68C186.52 115.73 183.52 114.59 182.19 112.81C180.85 110.92 181.99 108.78 183.02 105.55C183.41 104.45 183.95 102.95 185.26 102.88C188.51 102.81 193.05 108.53 197.79 107.71C201.83 107.39 202.57 103.69 198.52 102.36C196.27 101.65 193.74 101.47 191.35 100.49C170.66 92.64 183.55 68.22 203.36 73.32L203.56 73.37L203.55 73.36Z" fill="currentColor"/>
<path d="M48.4501 16.5401C46.3101 17.5901 43.6801 16.3601 41.1201 16.8801C38.7901 17.5501 36.6401 18.7701 35.4401 20.8701C33.0901 25.5101 31.7301 30.6101 29.8001 35.4701C29.3101 36.8301 28.2101 37.7501 26.8501 38.1701C23.8701 39.1901 21.0501 40.8201 18.5101 42.5401C17.4201 43.3201 16.1501 43.4501 14.8801 43.0701C9.64013 41.7901 -3.93987 42.0401 1.09013 33.3501C2.63013 31.0901 5.13013 29.2801 6.85013 27.1101C8.46013 25.0901 9.58013 22.2401 9.97013 19.7001C11.0101 14.3901 8.22013 7.88007 11.7701 3.27007C16.7201 -0.219927 23.9401 7.36007 29.2901 7.41007C35.8801 8.01007 42.1801 0.140073 47.6401 2.71007C51.3601 4.73007 50.0301 9.47007 49.3601 12.8801C49.0401 14.0301 49.2301 15.5801 48.5501 16.4601L48.4601 16.5501L48.4501 16.5401Z" fill="currentColor"/>
<path d="M100.12 34.94C97.6999 36.38 91.1799 31.03 86.6699 32.57C83.6799 33.57 84.6899 36.99 87.7099 37.69C90.8899 38.31 94.5399 38.93 97.0399 40.57C107.31 46.26 105.95 60.54 94.4699 65.8C86.6499 69.28 75.7699 67.63 69.7999 61.59C69.2699 61.04 68.9399 60.47 68.9399 59.74C69.4399 57.46 70.2199 53.09 72.1499 52.21C73.2199 51.77 74.3899 52.48 75.2799 53.1C77.8399 54.94 80.2899 56.73 83.6699 56.81C85.6399 56.95 88.6899 55.95 87.9399 53.48C87.4499 52.02 85.9599 51.44 84.4999 50.91C81.0999 49.74 76.6599 49.4 73.7799 46.78C73.3599 46.39 72.9199 45.92 72.8299 45.38C72.6599 44.22 74.9199 42.65 73.0799 40.13C71.2399 37.61 70.2199 38.71 69.6599 37.86C68.0299 33.59 71.9599 27.73 75.2099 25.04C81.3499 19.88 90.9099 20.91 98.1299 23.85C100.78 25.04 102.56 25.71 101.78 29.18C101.48 30.85 101.13 33.62 100.21 34.85L100.13 34.93L100.12 34.94Z" fill="currentColor"/>
<path d="M136.07 22.9299C137.33 23.9999 136.91 25.9899 137.12 27.4899C137.76 32.3899 137.56 34.5799 132.09 34.1999C130.76 34.1999 128.98 33.7199 128.51 35.2699C127.74 44.4099 128.64 54.3999 128.01 63.6799C127.9 65.0599 127.38 66.8699 125.82 66.8799C124.35 66.9199 120.49 66.8799 117.96 66.8799C116.62 66.8799 115.8 66.9499 115.26 66.4799C113.76 64.7699 114.66 61.8899 114.16 59.7799C113.1 52.6699 114.33 44.0599 114.11 36.4799C114.09 35.8299 114.03 35.0099 113.62 34.5699C112.36 33.4099 108.81 34.8099 107.14 33.9499C104.08 32.8299 105.44 28.9499 105.49 26.4999C105.58 25.3899 105.53 24.1099 106.34 23.2599C110.58 20.4899 130.91 21.1099 135.94 22.8399L136.07 22.9299Z" fill="currentColor"/>
<path d="M75.8601 73.6799C76.6701 74.1999 76.7501 75.4499 76.7201 76.4199C76.1301 85.9999 75.3301 95.6999 75.1301 105.33C75.1301 106.52 75.9101 107.07 77.0101 107.01C79.5301 106.98 83.1701 106.44 85.8901 106.56C88.2201 106.64 89.7101 107.12 89.4301 109.29C89.0501 115.16 89.7801 118.71 82.7401 118.38C76.2101 118.81 69.7801 118.77 63.2401 118.3C62.0301 118.19 60.4601 117.78 59.8301 116.75C59.0201 115.21 59.6101 113.26 59.5301 111.56C59.7801 100.94 60.3301 89.7299 61.6901 79.2699C61.9501 76.4299 61.9801 73.8799 65.5301 73.7199C68.6901 73.5699 72.5601 72.6599 75.7401 73.5999L75.8601 73.6699V73.6799Z" fill="currentColor"/>
<path d="M239.67 55.4C239.93 55.75 240.37 55.78 240.79 55.8C248.82 56.15 253.75 53.44 252.33 64.53C251.24 69.38 232.19 66.57 228.67 66.89C225.99 67.02 225.32 64.08 225.38 61.87C224.87 49.56 224.15 37.2 224.8 24.88C224.72 21.98 228.4 22.32 230.9 21.9C233.43 21.68 236.08 21.67 237.31 22.13C238.17 22.45 238.35 23.39 238.45 24.26C239.67 33.89 238.1 45.53 239.6 55.32L239.66 55.41L239.67 55.4Z" fill="currentColor"/>
<path d="M52.2699 21.6699C53.4399 21.8499 54.6299 22.5199 55.1599 23.6899C57.5699 29.0799 58.8899 35.5299 60.9299 41.2199C61.3899 42.6699 62.0599 44.7699 62.3799 46.0599C62.6799 47.1899 62.3199 47.6199 61.2499 47.9499C51.1499 50.7799 40.4399 53.0499 29.9499 52.2199C28.5099 52.1499 28.1299 51.2799 28.6999 49.9999C32.2799 40.9799 33.8999 30.6999 38.8499 22.3999C39.3399 21.9499 39.9999 21.7299 40.6699 21.6399C44.4299 21.3899 48.3599 21.2199 52.1099 21.6399L52.2699 21.6699ZM48.8599 50.2399C48.2799 47.5099 46.9199 42.3699 46.2099 39.3999C45.9499 39.8499 43.6199 49.1699 43.3299 50.1199C43.3299 50.3499 43.5199 50.2399 43.8599 50.2699C44.7199 50.2699 47.9399 50.2899 48.8399 50.2499L48.8699 50.2299L48.8599 50.2399Z" fill="currentColor"/>
<path d="M66.4302 65.5099C65.1802 67.5199 62.2902 66.4199 60.3302 66.8199C58.4902 67.0399 55.8102 67.6199 54.4902 66.4499C53.2202 65.2199 53.2002 63.0499 52.5002 61.5499C52.2202 60.8999 51.8802 60.6099 51.2902 60.5499C49.4602 60.4899 43.2902 60.5299 41.0902 60.5099C40.7302 60.5099 40.3902 60.5499 40.1202 60.7699C38.7902 62.3299 39.0302 65.3299 37.2302 66.5899C35.9202 67.5899 33.3702 67.1199 31.6602 66.8999C29.7102 66.6399 26.9302 67.1299 26.0002 65.9099C24.5102 63.3699 26.2602 59.1399 26.9202 55.9199C27.1602 54.4899 28.4802 54.8099 29.8502 54.8999C43.4302 55.7299 51.6502 53.4699 61.4202 50.7099C62.6102 50.3699 63.2802 50.1899 63.5402 51.3299C64.4702 55.9099 67.2102 60.7399 66.4902 65.3699L66.4202 65.5199L66.4302 65.5099Z" fill="currentColor"/>
<path d="M63.2201 37.2999C68.7801 37.6799 76.8801 40.7199 70.6601 45.3499C63.7101 50.0799 57.0901 51.3199 44.8501 53.5099C37.4201 54.8399 11.3901 54.2099 19.8101 46.3499C22.5001 44.0199 25.7401 42.6199 29.0701 41.6699C29.4001 41.5899 29.8701 41.4499 30.1601 41.5899C30.5701 42.7699 26.7301 43.6499 25.8201 44.1399C23.9401 44.9499 19.8301 47.0899 20.1001 49.2499C20.6601 53.7899 39.8001 53.3199 43.3301 52.7899C47.6201 52.1499 65.1601 49.6999 70.5301 43.2599C72.3101 40.2899 67.5601 39.0299 64.6401 38.5299C63.7101 38.3299 61.9501 38.4299 61.3401 37.7699C61.1701 37.1599 62.5101 37.2199 63.0401 37.2699L63.2301 37.2899L63.2201 37.2999Z" fill="currentColor"/>
</g>
<defs>
<clipPath id="clip0_701_152">
<rect width="277.45" height="118.97" fill="currentColor"/>
</clipPath>
</defs>
</svg>

<svg xmlns="http://www.w3.org/2000/svg" width="278" height="119" fill="none"><g fill="currentColor" clip-path="url(#a)"><path d="M168.69 74.23c7.2 2.73 10.3 14.17 4.24 18.94-.81.7-.26 1.18.48 1.48 9.49 3.4 9.1 18.35 0 22.03-8.5 3.54-20.43 1.89-29.58.97-2.49 0-2.81-2.71-2.94-4.68-.58-11.84-.69-24.1.23-35.85.06-.77.16-1.87.53-2.37 2.49-2.19 21.33-2.42 26.91-.56l.13.05zm-13.11 8.59c-.09 1.16 0 4.9-.03 5.75.03.36.34.4.7.43 3.52.32 6.39-2.38 4.2-5.38-.46-.59-1.13-1.05-1.84-1.17-.62-.02-2.47.16-2.98.34l-.04.04zm5.66 17.22c-1.18-.33-3.99.09-5.04-.03-.56-.02-.2.87-.3 1.98.06 1.28-.13 3.17.08 4.18.06.05.15.07.29.07 2.05-.03 6.47.68 6.97-2.4.18-1.15 0-2.41-.98-3.16-.4-.25-.79-.45-.94-.59l-.07-.06zM234.92 2.11c1.07.65 2.27 1.38 3.53 1.99 11.44 5.65 17.37-3.29 26.24-1.28 1.38.31 2.57 1.28 3.1 2.6 2.03 4.77-1.47 10.69-.97 15.88.52 6.23 6.56 9.95 9.68 14.8 3.73 7.32-4.27 9.12-9.94 9.46-5.2 0-9.38 1.69-11.59 6.53-.87 1.9-1.76.91-3.13.4-1.91-.77-4.13-.47-6.24-.59-1.13-.04-2.19-.51-2.44-1.71-1.69-9 2.34-26.89-5.07-31.39-2.54-1.68-5.89-1.39-8.84-1.2-1.37.07-2.84.19-3.39-.54-.24-.28-.36-.67-.43-1.14-.97-10.06-2.36-20.41 9.34-13.9l.14.08zM166.16 23.39c9.31 4.02 11.87 19.22 2.73 24.86-1.91 1.72.24 3.64 1.25 5.55 1.02 1.66 1.84 2.78 2.98 4.46 3.76 5.87 6.71 9.24-3.27 8.97-1.73.01-3.81.01-5.39-.02-1.25 0-2.18-.82-2.7-1.92-2.17-4.23-3.86-9-6.35-12.86-.37-.57-.89-.97-.99-.02-.15 1.55-.08 3.92 0 5.7.9 10.23.55 9.45-8.11 9.12-4.25-.16-6.04-.46-6.04-5.17-.3-10.96-.86-21.94-.57-32.91.05-1.6-.02-3.81.89-5.13 1.81-2.22 5.25-1.32 7.78-1.66 5.68-.38 12.67-.97 17.62.96zm-8.25 9.87c-.83-.17-2.29.02-3.27.02-.09.02-.14.06-.16.13-.03.77 0 1.56 0 2.79v5.1c.06.15.13.16.34.17 1.24-.03 3.26.22 4.21-.68 2.18-1.87 1.79-6.34-.98-7.49l-.15-.05zM124.32 73.79c5.26 12.86 9.93 27.3 13.41 41.07.42 3.01-2.84 3.04-4.98 3.11-2.25.18-5.13.49-7.28.21-2.37-.29-2.57-3.55-3.27-5.32-.24-.73-.5-1.18-1.26-1.2-1.9-.04-8.48-.04-10.6-.04-2.66.12-2.09 4.2-3.7 5.73-1 1.17-2.74.89-4.77.95-3.44-.08-7.03-.02-8.95-1.38-.74-.68-.31-2.09.05-3.01 5-13.05 8.09-27.62 15.1-39.85.51-.82 1.03-1.11 1.86-1.11 2.36 0 8.33-.13 11.68.03 1.47.1 2.23.08 2.66.7l.07.1zm-11.7 27.7c1.04.07 4.21.02 4.89.02.43-.03.8-.42.8-.8-.15-3.07-1.93-6.14-2.14-9.18 0-.39-.33-1.42-.64-.63-.25 1.5-1.04 3.37-1.54 4.82-.4 1.67-1.11 4.18-1.4 5.74zM208.36 22.55c4.71 9.59 6.91 21.43 10.69 31.41.82 1.55.96 2.77 1.12 4.39.58 2.67 3.72 7.88-1.11 8.16-2.82-.02-5.6.61-8.43.38-1.59-.22-2.17-1.79-2.67-3.21-.51-1.15-.55-2.55-1.64-3.07-2.11-.26-8.05-.07-10.54-.14-.71 0-1.19.11-1.46.91-.69 1.62-.8 4.21-2.47 5.26-1.97.86-5.05-.12-7.33-.03-2.46.17-5.32-.24-4.86-3.46 3.66-12.71 7.07-26.87 11.94-39.49.36-.82.7-1.37 1.37-1.68 2.57-1.21 10.93-.86 14.12-.14.46.11.87.29 1.19.63l.09.1zM198.02 50.5c1.45.15 3.61.3 5.03-.13.19-.15.3-.32.25-.59-.38-1.45-.84-3.18-1.23-4.88-.27-.65-1.15-6.09-1.89-4.93-.79 3.15-1.84 6.4-2.54 9.58-.04.31-.06.78.26.9l.13.05z"/><path d="M203.55 73.36c5.37 1.81 11.74.84 10.06 8.64-.21 2.19-.51 4.54-3.07 4.02-3.76-.7-7.81-3.29-11.88-2.41-1.35.28-2.35 1.76-1.62 3.04.58 1.11 2.16 1.53 3.55 1.92 9.49 2.73 18.36 5.34 17.39 17.13-2.02 13.08-18.56 15.95-29.34 10.98-2.12-.95-5.12-2.09-6.45-3.87-1.34-1.89-.2-4.03.83-7.26.39-1.1.93-2.6 2.24-2.67 3.25-.07 7.79 5.65 12.53 4.83 4.04-.32 4.78-4.02.73-5.35-2.25-.71-4.78-.89-7.17-1.87-20.69-7.85-7.8-32.27 12.01-27.17l.2.05zM48.45 16.54c-2.14 1.05-4.77-.18-7.33.34-2.33.67-4.48 1.89-5.68 3.99-2.35 4.64-3.71 9.74-5.64 14.6-.49 1.36-1.59 2.28-2.95 2.7-2.98 1.02-5.8 2.65-8.34 4.37-1.09.78-2.36.91-3.63.53-5.24-1.28-18.82-1.03-13.79-9.72 1.54-2.26 4.04-4.07 5.76-6.24 1.61-2.02 2.73-4.87 3.12-7.41 1.04-5.31-1.75-11.82 1.8-16.43 4.95-3.49 12.17 4.09 17.52 4.14 6.59.6 12.89-7.27 18.35-4.7 3.72 2.02 2.39 6.76 1.72 10.17-.32 1.15-.13 2.7-.81 3.58l-.09.09zM100.12 34.94c-2.42 1.44-8.94-3.91-13.45-2.37-2.99 1-1.98 4.42 1.04 5.12 3.18.62 6.83 1.24 9.33 2.88 10.27 5.69 8.91 19.97-2.57 25.23-7.82 3.48-18.7 1.83-24.67-4.21-.53-.55-.86-1.12-.86-1.85.5-2.28 1.28-6.65 3.21-7.53 1.07-.44 2.24.27 3.13.89 2.56 1.84 5.01 3.63 8.39 3.71 1.97.14 5.02-.86 4.27-3.33-.49-1.46-1.98-2.04-3.44-2.57-3.4-1.17-7.84-1.51-10.72-4.13-.42-.39-.86-.86-.95-1.4-.17-1.16 2.09-2.73.25-5.25s-2.86-1.42-3.42-2.27c-1.63-4.27 2.3-10.13 5.55-12.82 6.14-5.16 15.7-4.13 22.92-1.19 2.65 1.19 4.43 1.86 3.65 5.33-.3 1.67-.65 4.44-1.57 5.67l-.08.08zM136.07 22.93c1.26 1.07.84 3.06 1.05 4.56.64 4.9.44 7.09-5.03 6.71-1.33 0-3.11-.48-3.58 1.07-.77 9.14.13 19.13-.5 28.41-.11 1.38-.63 3.19-2.19 3.2-1.47.04-5.33 0-7.86 0-1.34 0-2.16.07-2.7-.4-1.5-1.71-.6-4.59-1.1-6.7-1.06-7.11.17-15.72-.05-23.3-.02-.65-.08-1.47-.49-1.91-1.26-1.16-4.81.24-6.48-.62-3.06-1.12-1.7-5-1.65-7.45.09-1.11.04-2.39.85-3.24 4.24-2.77 24.57-2.15 29.6-.42zM75.86 73.68c.81.52.89 1.77.86 2.74-.59 9.58-1.39 19.28-1.59 28.91 0 1.19.78 1.74 1.88 1.68 2.52-.03 6.16-.57 8.88-.45 2.33.08 3.82.56 3.54 2.73-.38 5.87.35 9.42-6.69 9.09-6.53.43-12.96.39-19.5-.08-1.21-.11-2.78-.52-3.41-1.55-.81-1.54-.22-3.49-.3-5.19.25-10.62.8-21.83 2.16-32.29.26-2.84.29-5.39 3.84-5.55 3.16-.15 7.03-1.06 10.21-.12l.12.07zM239.67 55.4c.26.35.7.38 1.12.4 8.03.35 12.96-2.36 11.54 8.73-1.09 4.85-20.14 2.04-23.66 2.36-2.68.13-3.35-2.81-3.29-5.02-.51-12.31-1.23-24.67-.58-36.99-.08-2.9 3.6-2.56 6.1-2.98 2.53-.22 5.18-.23 6.41.23.86.32 1.04 1.26 1.14 2.13 1.22 9.63-.35 21.27 1.15 31.06l.06.09z"/><path d="M52.27 21.67c1.17.18 2.36.85 2.89 2.02 2.41 5.39 3.73 11.84 5.77 17.53.46 1.45 1.13 3.55 1.45 4.84.3 1.13-.06 1.56-1.13 1.89-10.1 2.83-20.81 5.1-31.3 4.27-1.44-.07-1.82-.94-1.25-2.22 3.58-9.02 5.2-19.3 10.15-27.6.49-.45 1.15-.67 1.82-.76 3.76-.25 7.69-.42 11.44 0zm-3.41 28.57c-.58-2.73-1.94-7.87-2.65-10.84-.26.45-2.59 9.77-2.88 10.72 0 .23.19.12.53.15.86 0 4.08.02 4.98-.02l.03-.02zM66.43 65.51c-1.25 2.01-4.14.91-6.1 1.31-1.84.22-4.52.8-5.84-.37-1.27-1.23-1.29-3.4-1.99-4.9-.28-.65-.62-.94-1.21-1-1.83-.06-8-.02-10.2-.04-.36 0-.7.04-.97.26-1.33 1.56-1.09 4.56-2.89 5.82-1.31 1-3.86.53-5.57.31-1.95-.26-4.73.23-5.66-.99-1.49-2.54.26-6.77.92-9.99.24-1.43 1.56-1.11 2.93-1.02 13.58.83 21.8-1.43 31.57-4.19 1.19-.34 1.86-.52 2.12.62.93 4.58 3.67 9.41 2.95 14.04l-.07.15z"/><path d="M63.22 37.3c5.56.38 13.66 3.42 7.44 8.05-6.95 4.73-13.57 5.97-25.81 8.16-7.43 1.33-33.46.7-25.04-7.16 2.69-2.33 5.93-3.73 9.26-4.68.33-.08.8-.22 1.09-.08.41 1.18-3.43 2.06-4.34 2.55-1.88.81-5.99 2.95-5.72 5.11.56 4.54 19.7 4.07 23.23 3.54 4.29-.64 21.83-3.09 27.2-9.53 1.78-2.97-2.97-4.23-5.89-4.73-.93-.2-2.69-.1-3.3-.76-.17-.61 1.17-.55 1.7-.5l.19.02z"/></g><defs><clipPath id="a"><path fill="currentColor" d="M0 0h277.45v118.97H0z"/></clipPath></defs></svg>
